X: 3344
T: Bellingham Boat
R: jig
M: 6/8
K: Gmajor
|:Bc|ded cAF|GAG G2B|dcc dBB|BAA ABc|
~d3 cAF|~G3 G2c|B/c/dB cAF|GAG G:|
|:Bc|ded def|gag gfe|dbb caa|Bgg ABc|
~d3 def|~g3 gfg|afd ge^c|d3 d:|

